X:52
T:Kaszálják a bogojai rét alját
O:Gombos
Q:"Tánclépés" 1/4=112
L:1/4
K:C
D/D/E/F/ G/G/F/E/ | F<D D z | 
d c d G | A/A/B/c/ | d<A A z | 
d c d G | A/A/B/c/ | d<A F2 | 
D/D/E/F/ G/G/F/E/ | F<D D z |

